X:1
T:James Gibb editions
T:Psalm 33 (Becker) - Schütz
%%score [ ( 1 2 ) ( 3 4 ) ]
L:1/8
Q:1/4=121
M:2/2
K:F
V:1 treble nm="Soprano Alto"
V:2 treble 
V:3 bass nm="Tenor Bass"
V:4 bass 
V:1
"^Cornelius Becker\n(1561-1604)""^Psalm 33, SWV 130""^Heinrich Schütz\n(1585-1672)" F4 c4 | %1
w: ~Freut euch|
w: ein neu-|
 c2 c4 A2 | B2 c2 d4 | c4 f4 | e2 d4 c2 | d4 c4 :|[M:2/2] B4 c2 d2 | c2 A2 c2 (BA) | G2 F2 G2 A2 | %9
w: des Herrn, ihr|Chri- sten all,|ihr From-|men sollt Gott|prei- sen,|laßt klin- gen|Psal- ter Sai- ten\- *|spiel, auf Har- fen|
w: es Lied mit|gro- ßem Schall,|mit G'sang|und schö- nen|Wei- sen,||||
 B2 d2 d2 ^c2 | d4 f4 | d4 c2 B2- | B2 A2 G4 | F8 |] %14
w: macht der Freu- den|viel zu|Lob und Ruhm|* dem Her-|ren.|
w: |||||
V:2
 C4 F4 | F2 E4 D2 | D2 F2 F4 | F4 F4 | G2 G4 E2 | G4 E4 :|[M:2/2] D4 F2 F2 | E2 C2 G2 F2 | %8
 E2 D2 D2 F2 | F2 G2 F2 E2 | ^F4 D4 | F4 E2 G2- | G2 F4 E2 | F8 |] %14
V:3
 A,4 A,4 | A,2 G,4 F,2 | G,2 A,2 B,4 | A,4 A,4 | C2 =B,4 C2 | =B,4 C4 :|[M:2/2] G,4 A,2 B,2 | %7
 G,2 F,2 G,2 C2 | C2 A,2 B,2 C2 | D2 B,2 A,2 A,2 | %10
 A,4"^2. Des Herren Wort wahrhaftig ist, magst wohl getrost drauf bauen, \nwas Gott zusagt, hält er gewiß bei ihm ist Glaub und Trauen,\nhoch liebt er die Gerechtigkeit und schützt Gericht zu jeder Zeit,\ndie Erd ist voll sein'r Güte.\n\n4. Den frommen Gott soll jedermann vor Augen billig haben,\nall die auf Erden Wohnung han, vor ihm Scheu sollen tragen,\ndenn was er red't, das muß gescheh'n, was er gebeut, tut bald da steh'n,\nalles nach seinem Willen.\n\n5. Der Heiden Rat macht Gott zunicht, er wendet ihr Gedanken,\ndes Herren Rat bleibt ewiglich, sein's Herzens Sinn nicht wanket.\nO selig Leut', die Gott lieb hält, die er zu seinem Erb erwählt,\nnennt sie nach seinem Namen.\n\n7. Des Königs Herrlichkeit nichts schafft, sie muß gar bald vergehen,\nnichts hilft des Riesen große Kraft, kann wider Gott nicht stehen,\nbringt gleich der Feind viel Roß und Mann ins Feld, kann er doch nicht bestahn,\nGott für die Seinen streitet.\n\n9. Von ganzer Seel wir harren dein, Gott, unser Hilf und Schilde,\nin dir von Herzen wir uns freu'n, traun dein'm Namen milde,\nlaß walten ob uns deine Güt, vor allem Unfall uns behüt,\nauf dich wir sehnlich hoffen." B,4 | %11
 B,4 G,2 G,2- | G,2 C2 C4 | C8 |] %14
V:4
 F,4 F,4 | F,2 C,4 D,2 | G,2 F,2 B,,4 | F,4 D,4 | C,2 G,4 A,2 | G,4 C,4 :|[M:2/2] G,4 F,2 B,,2 | %7
 C,2 F,2 E,2 F,2 | C,2 D,2 G,2 F,2 | B,2 G,2 D,2 A,2 | D,4 B,,4 | B,,4 C,2 _E,2- | E,2 F,2 C,4 | %13
 x8 |] %14

